src/assets/background.svg

<svg fill="none" height="189" viewBox="0 0 189 189" width="189" xmlns="http://www.w3.org/2000/svg"><path clip-rule="evenodd" d="m109.315 130.74c18.414-2.175 38-8.87 38-40.6763 0-9.0403-3.184-16.4076-8.369-22.1001.837-2.1742 3.513-10.378-1.009-21.7597 0 0-6.696-2.1772-22.428 8.368-6.696-1.8394-14.061-3.0133-20.9241-3.0133-7.0332 0-14.4005 1.1739-20.9292 3.0133-15.9033-10.5452-22.5988-8.368-22.5988-8.368-4.5186 11.3817-1.8394 19.5855-1.0033 21.7597-5.1905 5.6921-8.371 13.0598-8.371 22.1001 0 31.8063 19.5855 38.5013 38.0001 40.6763-2.3418 2.013-4.5187 5.859-5.3551 11.217-4.6889 2.007-16.9096 5.859-24.274-6.863 0 0-4.354-7.866-12.5552-8.368 0 0-8.2038-.167-.6692 5.017 0 0 5.5223 2.515 9.2074 12.054 0 0 5.0203 15.906 28.1208 10.882v14.228c0 2.18-1.6722 4.689-5.8564 4.02-32.8122-10.883-56.4147-42.02-56.4147-78.5119 0-45.7022 36.9938-82.6956 82.6986-82.6956 45.5321 0 82.6961 36.9938 82.5291 82.6956 0 36.4919-23.605 67.4619-56.415 78.5119-4.187.836-5.86-1.672-5.86-4.02v-22.93c.001-7.705-2.514-12.723-5.524-15.237zm79.685-36.1551c0-52.2334-42.354-94.5849-94.4151-94.5849-52.2334 0-94.5849 42.3515-94.5849 94.5849 0 52.0611 42.3515 94.4151 94.5849 94.4151 52.0611 0 94.4151-42.354 94.4151-94.4151z" fill="#000" fill-opacity=".0428" fill-rule="evenodd"/></svg>

<svg width="189" height="189" viewBox="0 0 189 189" fill="none" xmlns="http://www.w3.org/2000/svg">
<path fill-rule="evenodd" clip-rule="evenodd" d="M109.315 130.74C127.729 128.565 147.315 121.87 147.315 90.0637C147.315 81.0234 144.131 73.6561 138.946 67.9636C139.783 65.7894 142.459 57.5856 137.937 46.2039C137.937 46.2039 131.241 44.0267 115.509 54.5719C108.813 52.7325 101.448 51.5586 94.5849 51.5586C87.5517 51.5586 80.1844 52.7325 73.6557 54.5719C57.7524 44.0267 51.0569 46.2039 51.0569 46.2039C46.5383 57.5856 49.2175 65.7894 50.0536 67.9636C44.8631 73.6557 41.6826 81.0234 41.6826 90.0637C41.6826 121.87 61.2681 128.565 79.6827 130.74C77.3409 132.753 75.164 136.599 74.3276 141.957C69.6387 143.964 57.418 147.816 50.0536 135.094C50.0536 135.094 45.6996 127.228 37.4984 126.726C37.4984 126.726 29.2946 126.559 36.8292 131.743C36.8292 131.743 42.3515 134.258 46.0366 143.797C46.0366 143.797 51.0569 159.703 74.1574 154.679V168.907C74.1574 171.087 72.4852 173.596 68.301 172.927C35.4888 162.044 11.8863 130.907 11.8863 94.4151C11.8863 48.7129 48.8801 11.7195 94.5849 11.7195C140.117 11.7195 177.281 48.7133 177.114 94.4151C177.114 130.907 153.509 161.877 120.699 172.927C116.512 173.763 114.839 171.255 114.839 168.907V145.977C114.84 138.272 112.325 133.254 109.315 130.74ZM189 94.5849C189 42.3515 146.646 0 94.5849 0C42.3515 0 0 42.3515 0 94.5849C0 146.646 42.3515 189 94.5849 189C146.646 189 189 146.646 189 94.5849Z" fill="black" fill-opacity="0.0428"/>
</svg>
